X: 8
T:Culburnie Cottage
M:4/4
L:1/8
C:Alasdair Fraser
R:Reel
K:D
fe|"D"d2 AF DFAF|"G"GDGA "Em"B2 cB|"D"Aa^ga =gfed|"A"ceAc egfe|!
"D"d2 AF DFAF|"G"GDGA "Em"B2 cB|"D"Aa^ga"A" =gecA|"D"d4 d2:|!
|:fg|"D"a2 fa "A"gece|"D"dAFA d2 cd|"A"ecAc eAce|"D"fdba "A"agfg|!
"D"a2 fa "A"gece|"D"dAFA d2 cd|"D"Aa^ga"A" =gecA|"D"d4 d2:||
